X: 39
T:The Aberdare Railway Polka
M:2/4
L:1/8
Q:220
S:Robin Huw Bowen
R:Polka
A:Wales
Z:brian_martin12345@yahoo.com
K:C
A|GG/c/ ec|Gc Ec|GG/B/ df|age2|GG/c/ ec|Gc Ec|fe/d/ dc/B/|ccc:||!
G|ce ca|g2ec|fe/d/ dc/B/|ceG2|ce ca|g2ec|fe/d/ dc/B/|ccc:||

